images/6604366.svg

<?xml version="1.0" encoding="UTF-8"?>
<svg xmlns="http://www.w3.org/2000/svg" xmlns:xlink="http://www.w3.org/1999/xlink" width="300pt" height="300pt" viewBox="0 0 300 300" version="1.1">
<defs>
<g>
<symbol overflow="visible" id="glyph0-0">
<path style="stroke:none;" d="M 0.640625 2.296875 L 0.640625 -9.171875 L 7.140625 -9.171875 L 7.140625 2.296875 Z M 1.375 1.578125 L 6.421875 1.578125 L 6.421875 -8.4375 L 1.375 -8.4375 Z M 1.375 1.578125 "/>
</symbol>
<symbol overflow="visible" id="glyph0-1">
<path style="stroke:none;" d="M 1.28125 -9.484375 L 3 -9.484375 L 7.203125 -1.546875 L 7.203125 -9.484375 L 8.453125 -9.484375 L 8.453125 0 L 6.71875 0 L 2.515625 -7.921875 L 2.515625 0 L 1.28125 0 Z M 1.28125 -9.484375 "/>
</symbol>
<symbol overflow="visible" id="glyph0-2">
<path style="stroke:none;" d="M 1.28125 -9.484375 L 2.5625 -9.484375 L 2.5625 -5.59375 L 7.21875 -5.59375 L 7.21875 -9.484375 L 8.5 -9.484375 L 8.5 0 L 7.21875 0 L 7.21875 -4.515625 L 2.5625 -4.515625 L 2.5625 0 L 1.28125 0 Z M 1.28125 -9.484375 "/>
</symbol>
<symbol overflow="visible" id="glyph0-3">
<path style="stroke:none;" d="M 5.125 -8.609375 C 4.1875 -8.609375 3.441406 -8.257812 2.890625 -7.5625 C 2.347656 -6.875 2.078125 -5.929688 2.078125 -4.734375 C 2.078125 -3.535156 2.347656 -2.585938 2.890625 -1.890625 C 3.441406 -1.203125 4.1875 -0.859375 5.125 -0.859375 C 6.050781 -0.859375 6.785156 -1.203125 7.328125 -1.890625 C 7.878906 -2.585938 8.15625 -3.535156 8.15625 -4.734375 C 8.15625 -5.929688 7.878906 -6.875 7.328125 -7.5625 C 6.785156 -8.257812 6.050781 -8.609375 5.125 -8.609375 Z M 5.125 -9.65625 C 6.445312 -9.65625 7.503906 -9.207031 8.296875 -8.3125 C 9.097656 -7.414062 9.5 -6.222656 9.5 -4.734375 C 9.5 -3.234375 9.097656 -2.035156 8.296875 -1.140625 C 7.503906 -0.253906 6.445312 0.1875 5.125 0.1875 C 3.789062 0.1875 2.722656 -0.253906 1.921875 -1.140625 C 1.128906 -2.035156 0.734375 -3.234375 0.734375 -4.734375 C 0.734375 -6.222656 1.128906 -7.414062 1.921875 -8.3125 C 2.722656 -9.207031 3.789062 -9.65625 5.125 -9.65625 Z M 5.125 -9.65625 "/>
</symbol>
<symbol overflow="visible" id="glyph1-0">
<path style="stroke:none;" d="M 0.546875 1.9375 L 0.546875 -7.75 L 6.046875 -7.75 L 6.046875 1.9375 Z M 1.171875 1.328125 L 5.4375 1.328125 L 5.4375 -7.140625 L 1.171875 -7.140625 Z M 1.171875 1.328125 "/>
</symbol>
<symbol overflow="visible" id="glyph1-1">
<path style="stroke:none;" d="M 5.0625 -6.890625 L 5.0625 -3.90625 L 8.046875 -3.90625 L 8.046875 -2.984375 L 5.0625 -2.984375 L 5.0625 0 L 4.15625 0 L 4.15625 -2.984375 L 1.171875 -2.984375 L 1.171875 -3.90625 L 4.15625 -3.90625 L 4.15625 -6.890625 Z M 5.0625 -6.890625 "/>
</symbol>
</g>
</defs>
<g id="surface35073">
<rect x="0" y="0" width="300" height="300" style="fill:rgb(100%,100%,100%);fill-opacity:1;stroke:none;"/>
<path style="fill:none;stroke-width:1.2;stroke-linecap:butt;stroke-linejoin:miter;stroke:rgb(0%,0%,0%);stroke-opacity:1;stroke-miterlimit:10;" d="M 35.25 106.652344 L 50.511719 136.976562 "/>
<path style="fill:none;stroke-width:1.2;stroke-linecap:butt;stroke-linejoin:miter;stroke:rgb(0%,0%,0%);stroke-opacity:1;stroke-miterlimit:10;" d="M 50.511719 136.976562 L 84.402344 138.921875 "/>
<path style="fill:none;stroke-width:1.2;stroke-linecap:butt;stroke-linejoin:miter;stroke:rgb(0%,0%,0%);stroke-opacity:1;stroke-miterlimit:10;" d="M 53.441406 145.144531 L 80.554688 146.703125 "/>
<path style="fill:none;stroke-width:1.2;stroke-linecap:butt;stroke-linejoin:miter;stroke:rgb(0%,0%,0%);stroke-opacity:1;stroke-miterlimit:10;" d="M 84.402344 138.921875 L 103.03125 110.546875 "/>
<path style="fill:none;stroke-width:1.2;stroke-linecap:butt;stroke-linejoin:miter;stroke:rgb(0%,0%,0%);stroke-opacity:1;stroke-miterlimit:10;" d="M 84.402344 138.921875 L 99.660156 169.246094 "/>
<path style="fill:none;stroke-width:1.2;stroke-linecap:butt;stroke-linejoin:miter;stroke:rgb(0%,0%,0%);stroke-opacity:1;stroke-miterlimit:10;" d="M 103.03125 110.546875 L 126.507812 101.574219 "/>
<path style="fill:none;stroke-width:1.2;stroke-linecap:butt;stroke-linejoin:miter;stroke:rgb(0%,0%,100%);stroke-opacity:1;stroke-miterlimit:10;" d="M 126.507812 101.574219 L 149.980469 92.605469 "/>
<path style="fill:none;stroke-width:1.2;stroke-linecap:butt;stroke-linejoin:miter;stroke:rgb(0%,0%,100%);stroke-opacity:1;stroke-miterlimit:10;" d="M 149.980469 92.605469 L 153.574219 106.859375 "/>
<path style="fill:none;stroke-width:1.2;stroke-linecap:butt;stroke-linejoin:miter;stroke:rgb(0%,0%,0%);stroke-opacity:1;stroke-miterlimit:10;" d="M 153.574219 106.859375 L 157.167969 121.117188 "/>
<path style="fill:none;stroke-width:1;stroke-linecap:butt;stroke-linejoin:miter;stroke:rgb(0%,0%,0%);stroke-opacity:1;stroke-miterlimit:10;" d="M 149.980469 92.605469 L 149.980469 92.605469 M 148.851562 89.824219 L 147.96875 90.378906 M 147.722656 87.046875 L 145.957031 88.15625 M 146.589844 84.265625 L 143.941406 85.929688 M 145.460938 81.488281 L 141.929688 83.707031 M 144.332031 78.710938 L 139.914062 81.484375 M 143.199219 75.929688 L 137.902344 79.257812 M 142.070312 73.152344 L 135.890625 77.035156 M 140.9375 70.371094 L 133.875 74.8125 M 139.808594 67.59375 L 131.863281 72.585938 M 138.679688 64.816406 L 129.847656 70.363281 M 137.546875 62.035156 L 127.835938 68.136719 M 136.992188 60.671875 L 126.847656 67.046875 "/>
<path style="fill:none;stroke-width:1.2;stroke-linecap:butt;stroke-linejoin:miter;stroke:rgb(0%,0%,0%);stroke-opacity:1;stroke-miterlimit:10;" d="M 137.34375 124.109375 L 143.664062 108.355469 "/>
<path style="fill:none;stroke-width:1.2;stroke-linecap:butt;stroke-linejoin:miter;stroke:rgb(0%,0%,100%);stroke-opacity:1;stroke-miterlimit:10;" d="M 143.664062 108.355469 L 149.980469 92.605469 "/>
<path style=" stroke:none;fill-rule:nonzero;fill:rgb(100%,100%,100%);fill-opacity:1;" d="M 139.980469 83.105469 L 159.980469 83.105469 L 159.980469 102.105469 L 139.980469 102.105469 Z M 139.980469 83.105469 "/>
<g style="fill:rgb(0%,0%,100%);fill-opacity:1;">
  <use xlink:href="#glyph0-1" x="139.980469" y="98.300781"/>
</g>
<g style="fill:rgb(0%,0%,100%);fill-opacity:1;">
  <use xlink:href="#glyph1-1" x="149.950195" y="93.417969"/>
</g>
<path style="fill:none;stroke-width:1.2;stroke-linecap:butt;stroke-linejoin:miter;stroke:rgb(0%,0%,0%);stroke-opacity:1;stroke-miterlimit:10;" d="M 157.167969 121.117188 L 156.21875 117.351562 "/>
<path style=" stroke:none;fill-rule:nonzero;fill:rgb(0%,0%,0%);fill-opacity:1;" d="M 163.402344 145.867188 L 162.027344 115.890625 L 150.410156 118.816406 Z M 163.402344 145.867188 "/>
<path style="fill:none;stroke-width:1.2;stroke-linecap:butt;stroke-linejoin:miter;stroke:rgb(0%,0%,0%);stroke-opacity:1;stroke-miterlimit:10;" d="M 163.402344 145.867188 L 137.34375 124.109375 "/>
<path style="fill:none;stroke-width:1.2;stroke-linecap:butt;stroke-linejoin:miter;stroke:rgb(0%,0%,0%);stroke-opacity:1;stroke-miterlimit:10;" d="M 157.59375 179.3125 L 163.402344 145.867188 "/>
<path style="fill:none;stroke-width:1.2;stroke-linecap:butt;stroke-linejoin:miter;stroke:rgb(0%,0%,0%);stroke-opacity:1;stroke-miterlimit:10;" d="M 197.007812 141.058594 L 163.402344 145.867188 "/>
<path style=" stroke:none;fill-rule:nonzero;fill:rgb(0%,0%,0%);fill-opacity:1;" d="M 137.34375 124.109375 L 103.410156 130.175781 L 107.535156 141.425781 Z M 137.34375 124.109375 "/>
<path style="fill:none;stroke-width:1.2;stroke-linecap:butt;stroke-linejoin:miter;stroke:rgb(0%,0%,0%);stroke-opacity:1;stroke-miterlimit:10;" d="M 105.472656 135.800781 L 99.660156 169.246094 "/>
<path style="fill:none;stroke-width:1;stroke-linecap:butt;stroke-linejoin:miter;stroke:rgb(0%,0%,0%);stroke-opacity:1;stroke-miterlimit:10;" d="M 99.660156 169.246094 L 99.660156 169.246094 M 101.597656 171.542969 L 102.265625 170.742188 M 103.53125 173.835938 L 104.867188 172.234375 M 105.464844 176.128906 L 107.46875 173.726562 M 107.398438 178.421875 L 110.070312 175.21875 M 109.332031 180.714844 L 112.671875 176.714844 M 111.265625 183.007812 L 115.273438 178.207031 M 113.199219 185.300781 L 117.875 179.699219 M 115.132812 187.597656 L 120.476562 181.191406 M 117.066406 189.890625 L 123.082031 182.6875 M 119 192.183594 L 125.683594 184.179688 M 120.933594 194.476562 L 128.285156 185.671875 M 121.882812 195.601562 L 129.5625 186.40625 "/>
<path style="fill:none;stroke-width:1.2;stroke-linecap:butt;stroke-linejoin:miter;stroke:rgb(0%,0%,0%);stroke-opacity:1;stroke-miterlimit:10;" d="M 125.722656 191.003906 L 157.59375 179.3125 "/>
<path style="fill:none;stroke-width:1.2;stroke-linecap:butt;stroke-linejoin:miter;stroke:rgb(0%,0%,0%);stroke-opacity:1;stroke-miterlimit:10;" d="M 126.15625 182.335938 L 151.65625 172.984375 "/>
<path style="fill:none;stroke-width:1.2;stroke-linecap:butt;stroke-linejoin:miter;stroke:rgb(0%,0%,0%);stroke-opacity:1;stroke-miterlimit:10;" d="M 125.722656 191.003906 L 119.910156 224.449219 "/>
<path style="fill:none;stroke-width:1.2;stroke-linecap:butt;stroke-linejoin:miter;stroke:rgb(0%,0%,0%);stroke-opacity:1;stroke-miterlimit:10;" d="M 157.59375 179.3125 L 172.597656 187.242188 "/>
<path style="fill:none;stroke-width:1.2;stroke-linecap:butt;stroke-linejoin:miter;stroke:rgb(0%,0%,100%);stroke-opacity:1;stroke-miterlimit:10;" d="M 172.597656 187.242188 L 187.605469 195.175781 "/>
<path style="fill:none;stroke-width:1.2;stroke-linecap:butt;stroke-linejoin:miter;stroke:rgb(0%,0%,100%);stroke-opacity:1;stroke-miterlimit:10;" d="M 187.605469 195.175781 L 199.785156 183.355469 "/>
<path style="fill:none;stroke-width:1.2;stroke-linecap:butt;stroke-linejoin:miter;stroke:rgb(0%,0%,0%);stroke-opacity:1;stroke-miterlimit:10;" d="M 199.785156 183.355469 L 211.96875 171.53125 "/>
<path style=" stroke:none;fill-rule:nonzero;fill:rgb(100%,100%,100%);fill-opacity:1;" d="M 177.605469 187.175781 L 197.605469 187.175781 L 197.605469 203.175781 L 177.605469 203.175781 Z M 177.605469 187.175781 "/>
<g style="fill:rgb(0%,0%,100%);fill-opacity:1;">
  <use xlink:href="#glyph0-1" x="177.605469" y="199.551758"/>
  <use xlink:href="#glyph0-2" x="187.575195" y="199.551758"/>
</g>
<path style="fill:none;stroke-width:1.2;stroke-linecap:butt;stroke-linejoin:miter;stroke:rgb(0%,0%,0%);stroke-opacity:1;stroke-miterlimit:10;" d="M 211.96875 171.53125 L 245.835938 173.816406 "/>
<path style="fill:none;stroke-width:1.2;stroke-linecap:butt;stroke-linejoin:miter;stroke:rgb(0%,0%,0%);stroke-opacity:1;stroke-miterlimit:10;" d="M 215.890625 163.792969 L 242.988281 165.617188 "/>
<path style="fill:none;stroke-width:1.2;stroke-linecap:butt;stroke-linejoin:miter;stroke:rgb(0%,0%,0%);stroke-opacity:1;stroke-miterlimit:10;" d="M 197.007812 141.058594 L 211.96875 171.53125 "/>
<path style="fill:none;stroke-width:1.2;stroke-linecap:butt;stroke-linejoin:miter;stroke:rgb(0%,0%,0%);stroke-opacity:1;stroke-miterlimit:10;" d="M 245.835938 173.816406 L 264.75 145.625 "/>
<path style="fill:none;stroke-width:1.2;stroke-linecap:butt;stroke-linejoin:miter;stroke:rgb(0%,0%,0%);stroke-opacity:1;stroke-miterlimit:10;" d="M 264.75 145.625 L 249.792969 115.148438 "/>
<path style="fill:none;stroke-width:1.2;stroke-linecap:butt;stroke-linejoin:miter;stroke:rgb(0%,0%,0%);stroke-opacity:1;stroke-miterlimit:10;" d="M 256.082031 146.097656 L 244.117188 121.71875 "/>
<path style="fill:none;stroke-width:1.2;stroke-linecap:butt;stroke-linejoin:miter;stroke:rgb(0%,0%,0%);stroke-opacity:1;stroke-miterlimit:10;" d="M 249.792969 115.148438 L 215.921875 112.867188 "/>
<path style="fill:none;stroke-width:1.2;stroke-linecap:butt;stroke-linejoin:miter;stroke:rgb(0%,0%,0%);stroke-opacity:1;stroke-miterlimit:10;" d="M 215.921875 112.867188 L 197.007812 141.058594 "/>
<path style="fill:none;stroke-width:1.2;stroke-linecap:butt;stroke-linejoin:miter;stroke:rgb(0%,0%,0%);stroke-opacity:1;stroke-miterlimit:10;" d="M 220.664062 120.136719 L 205.535156 142.6875 "/>
<path style="fill:none;stroke-width:1.2;stroke-linecap:butt;stroke-linejoin:miter;stroke:rgb(0%,0%,0%);stroke-opacity:1;stroke-miterlimit:10;" d="M 118.535156 220.699219 L 102.601562 226.546875 "/>
<path style="fill:none;stroke-width:1.2;stroke-linecap:butt;stroke-linejoin:miter;stroke:rgb(100%,0%,0%);stroke-opacity:1;stroke-miterlimit:10;" d="M 102.601562 226.546875 L 86.664062 232.390625 "/>
<path style="fill:none;stroke-width:1.2;stroke-linecap:butt;stroke-linejoin:miter;stroke:rgb(0%,0%,0%);stroke-opacity:1;stroke-miterlimit:10;" d="M 121.285156 228.199219 L 105.351562 234.042969 "/>
<path style="fill:none;stroke-width:1.2;stroke-linecap:butt;stroke-linejoin:miter;stroke:rgb(100%,0%,0%);stroke-opacity:1;stroke-miterlimit:10;" d="M 105.351562 234.042969 L 89.414062 239.890625 "/>
<path style=" stroke:none;fill-rule:nonzero;fill:rgb(100%,100%,100%);fill-opacity:1;" d="M 77.039062 228.140625 L 88.039062 228.140625 L 88.039062 244.140625 L 77.039062 244.140625 Z M 77.039062 228.140625 "/>
<g style="fill:rgb(100%,0%,0%);fill-opacity:1;">
  <use xlink:href="#glyph0-3" x="77.039062" y="240.516602"/>
</g>
</g>
</svg>

<svg xmlns="http://www.w3.org/2000/svg" xmlns:xlink="http://www.w3.org/1999/xlink" width="300pt" height="300pt" viewBox="0 0 300 300"><defs><symbol overflow="visible"><path d="M.64 2.297v-11.47h6.5v11.47zm.735-.72h5.047V-8.436H1.375zm0 0"/></symbol><symbol overflow="visible" id="a"><path d="M1.28-9.484H3l4.203 7.937v-7.937h1.25V0H6.72L2.515-7.922V0H1.28zm0 0"/></symbol><symbol overflow="visible" id="c"><path d="M1.28-9.484h1.282v3.89H7.22v-3.89H8.5V0H7.22v-4.516H2.562V0H1.28zm0 0"/></symbol><symbol overflow="visible" id="d"><path d="M5.125-8.61c-.938 0-1.684.352-2.234 1.047-.542.688-.812 1.633-.812 2.83 0 1.198.27 2.147.813 2.842.55.687 1.297 1.03 2.235 1.03.926 0 1.66-.343 2.203-1.03.55-.696.828-1.645.828-2.844 0-1.196-.277-2.14-.828-2.829-.543-.695-1.277-1.046-2.203-1.046zm0-1.046c1.32 0 2.38.45 3.172 1.344.8.898 1.203 2.09 1.203 3.578 0 1.5-.402 2.7-1.203 3.593C7.504-.255 6.445.186 5.125.186c-1.336 0-2.402-.44-3.203-1.328C1.13-2.036.734-3.235.734-4.735c0-1.49.395-2.68 1.188-3.579.8-.894 1.867-1.343 3.203-1.343zm0 0"/></symbol><symbol overflow="visible"><path d="M.547 1.938V-7.75h5.5v9.688zm.625-.61h4.266v-8.47H1.171zm0 0"/></symbol><symbol overflow="visible" id="b"><path d="M5.063-6.89v2.984h2.984v.922H5.062V0h-.906v-2.984H1.172v-.922h2.984V-6.89zm0 0"/></symbol></defs><g><path fill="#fff" d="M0 0h300v300H0z"/><path d="M35.25 106.652l15.262 30.325M50.512 136.977l33.89 1.945M53.44 145.145l27.115 1.558M84.402 138.922l18.63-28.375M84.402 138.922l15.258 30.324M103.03 110.547l23.478-8.973" stroke-width="1.2" stroke="#000" stroke-miterlimit="10" fill="none"/><path d="M126.508 101.574l23.472-8.97M149.98 92.605l3.594 14.254" stroke-width="1.2" stroke="#00f" stroke-miterlimit="10" fill="none"/><path d="M153.574 106.86l3.594 14.257" stroke-width="1.2" stroke="#000" stroke-miterlimit="10" fill="none"/><path d="M149.98 92.605m-1.128-2.78l-.883.554m-.247-3.333l-1.766 1.11m.633-3.89l-2.65 1.663m1.52-4.442l-3.53 2.22m2.402-4.997l-4.418 2.774m3.285-5.554l-5.298 3.328m4.168-6.106l-6.18 3.883m5.048-6.664l-7.063 4.442m5.934-7.218l-7.947 4.992m6.817-7.77l-8.832 5.547m7.7-8.328l-9.712 6.102m9.156-7.465l-10.144 6.375" stroke="#000" stroke-miterlimit="10" fill="none"/><path d="M137.344 124.11l6.32-15.755" stroke-width="1.2" stroke="#000" stroke-miterlimit="10" fill="none"/><path d="M143.664 108.355l6.316-15.75" stroke-width="1.2" stroke="#00f" stroke-miterlimit="10" fill="none"/><path d="M139.98 83.105h20v19h-20zm0 0" fill="#fff"/><use xlink:href="#a" x="139.98" y="98.301" fill="#00f"/><use xlink:href="#b" x="149.95" y="93.418" fill="#00f"/><path d="M157.168 121.117l-.95-3.765" stroke-width="1.2" stroke="#000" stroke-miterlimit="10" fill="none"/><path d="M163.402 145.867l-1.375-29.976-11.617 2.926zm0 0"/><path d="M163.402 145.867l-26.058-21.758M157.594 179.313l5.808-33.446M197.008 141.06l-33.606 4.807" stroke-width="1.2" stroke="#000" stroke-miterlimit="10" fill="none"/><path d="M137.344 124.11l-33.934 6.066 4.125 11.25zm0 0"/><path d="M105.473 135.8l-5.813 33.446" stroke-width="1.2" stroke="#000" stroke-miterlimit="10" fill="none"/><path d="M99.66 169.246m1.938 2.297l.668-.8m1.265 3.093l1.337-1.602m.598 3.895l2.004-2.403m-.072 4.695l2.672-3.203m-.738 5.495l3.34-4m-1.406 6.293l4.007-4.8M113.2 185.3l4.675-5.6m-2.742 7.898l5.344-6.407m-3.41 8.7l6.015-7.202M119 192.184l6.684-8.004m-4.75 10.297l7.35-8.805m-6.4 9.93l7.678-9.196" stroke="#000" stroke-miterlimit="10" fill="none"/><path d="M125.723 191.004l31.87-11.69M126.156 182.336l25.5-9.352M125.723 191.004l-5.813 33.445M157.594 179.313l15.004 7.93" stroke-width="1.2" stroke="#000" stroke-miterlimit="10" fill="none"/><path d="M172.598 187.242l15.007 7.934M187.605 195.176l12.18-11.82" stroke-width="1.2" stroke="#00f" stroke-miterlimit="10" fill="none"/><path d="M199.785 183.355l12.184-11.824" stroke-width="1.2" stroke="#000" stroke-miterlimit="10" fill="none"/><path d="M177.605 187.176h20v16h-20zm0 0" fill="#fff"/><g fill="#00f"><use xlink:href="#a" x="177.605" y="199.552"/><use xlink:href="#c" x="187.575" y="199.552"/></g><path d="M211.97 171.53l33.866 2.286M215.89 163.793l27.098 1.824M197.008 141.06l14.96 30.47M245.836 173.816l18.914-28.19M264.75 145.625l-14.957-30.477M256.082 146.098l-11.965-24.38M249.793 115.148l-33.87-2.28M215.922 112.867l-18.914 28.192M220.664 120.137l-15.13 22.55M118.535 220.7l-15.933 5.847" stroke-width="1.2" stroke="#000" stroke-miterlimit="10" fill="none"/><path d="M102.602 226.547l-15.938 5.844" stroke-width="1.2" stroke="#f00" stroke-miterlimit="10" fill="none"/><path d="M121.285 228.2l-15.933 5.843" stroke-width="1.2" stroke="#000" stroke-miterlimit="10" fill="none"/><path d="M105.352 234.043l-15.938 5.848" stroke-width="1.2" stroke="#f00" stroke-miterlimit="10" fill="none"/><path d="M77.04 228.14h11v16h-11zm0 0" fill="#fff"/><use xlink:href="#d" x="77.039" y="240.517" fill="#f00"/></g></svg>
